FINK
CUT[SCHOEN SIND ROSEN UND JASMIN]
REG[Europa, Mitteleuropa, Deutschland]
KEY[F0936  08 Eb 4/4]
MEL[5+134  5+1345+156  5__
    4624  35243__  20_.
    5+134  5+1345+156  5__
    4624  35243__  2_0_
    5_4#5  6_567_67  +1__
    7+26+1  7+2+164#__  5__
    5+134  5+1345+156  5__
    4624  351324-72  10_.
    4624  351324-72  10_. //] >>
FCT[Liebes - Lied]
